X:1
T:Mrs Dalzell
T:Mrs Dalzell
T:Nathaniel Gow
C:Nathaniel Gow
L:1/8
Q:1/8=128
M:4/4
K:Eb
V:1 treble 
V:1
|: c | B<G F>E E2 G>E | E/F/G F>E C3 c | B<G F>E G2 e>E | G2 F>E E3 c | B<G F>E E2 G>E | %6
 E/F/G F>E C3 c | B<G F>E G2 e>E | G2 F>E E3 B | e3/2 f/gg g2 fe | ga/g/ g/f/e/d/ c3 (3(B/c/d/) | %11
 e>f ge c2 a>g | f>e d/e/f/g/ e3 (3(B/c/d/) | e2 GA/B/ c2 FG/A/ | B<G F>E C3 c | B<G F>E G2 e>E | %16
 G2 F>E E3 :| %17

